source/img/icon-mountain.svg

<svg width="25" height="25" viewBox="0 0 25 25" fill="none" xmlns="http://www.w3.org/2000/svg">
<g clip-path="url(#clip0)">
<path d="M23.4153 24.1881L19.3747 14.7903L15.5583 5.9076C15.4551 5.6652 15.1749 5.55244 14.9325 5.65566C14.8192 5.70396 14.7289 5.79424 14.6806 5.9076L11.2744 13.8123L9.93871 16.9179L7.00963 10.1581C6.90634 9.91571 6.62614 9.80295 6.3838 9.90617C6.27044 9.95447 6.18016 10.0447 6.13186 10.1581L3.37928 16.5172L0.0399368 24.1834C-0.0654315 24.4248 0.0448861 24.706 0.286333 24.8114C0.347037 24.8379 0.412572 24.8515 0.478822 24.8512H22.9765C23.2399 24.851 23.4533 24.6373 23.4531 24.3738C23.4531 24.31 23.4402 24.2469 23.4153 24.1881ZM15.1147 7.29581L18.2107 14.4945H17.1231L15.1576 12.3239C14.9804 12.1289 14.6787 12.1145 14.4837 12.2918C14.4531 12.3196 14.4263 12.3512 14.4039 12.3859L13.6692 13.5213H12.4384L15.1147 7.29581ZM6.57074 11.532L9.018 17.1898H7.68226C7.52007 17.1901 7.36914 17.2728 7.28154 17.4093L6.80449 18.1678L5.57371 16.4313C5.48474 16.303 5.33864 16.2264 5.18253 16.2262H4.54805L6.57074 11.532ZM1.22779 23.8971L4.13302 17.1803H4.93446L6.42285 19.3031C6.51182 19.4314 6.65792 19.508 6.81403 19.5083C6.97283 19.5048 7.11947 19.4225 7.20522 19.2888L7.93987 18.1535H9.42826L11.9137 23.878L1.22779 23.8971ZM12.9584 23.8971L10.4587 18.1248L12.0282 14.4754H13.9364C14.0986 14.4751 14.2495 14.3925 14.3371 14.256L14.8666 13.4402L16.5554 15.3055C16.6455 15.4054 16.7738 15.4626 16.9084 15.4629H18.6162L22.2466 23.9114L12.9584 23.8971Z" fill="#2D383F"/>
<path d="M7.61096 2.08167C7.16093 0.922381 5.85626 0.347477 4.69703 0.797573C3.83387 1.13264 3.26385 1.96199 3.26028 2.88788C3.25557 2.97053 3.25557 3.0533 3.26028 3.13595C2.13241 3.65975 1.64278 4.99871 2.16658 6.12657C2.52932 6.90756 3.30572 7.41329 4.16667 7.42939L4.19052 7.44847H7.52987C9.01188 7.47089 10.2314 6.28763 10.2538 4.80562C10.2762 3.32361 9.09298 2.10409 7.61096 2.08167ZM7.55849 6.50869H4.21914C3.50512 6.58245 2.86653 6.06348 2.79277 5.34946C2.719 4.63543 3.23797 3.99684 3.952 3.92308C4.21026 3.87102 4.37747 3.6195 4.32541 3.36118C4.32141 3.34144 4.31622 3.32194 4.30978 3.30292C4.26321 3.16946 4.23906 3.02921 4.23823 2.88788C4.23417 2.17124 4.81176 1.58703 5.52841 1.58291C6.16234 1.57928 6.70606 2.03426 6.81429 2.6589C6.85812 2.90971 7.09122 3.08186 7.34382 3.05008C7.41531 3.04537 7.48699 3.04537 7.55849 3.05008C8.51354 3.05008 9.28779 3.82433 9.28779 4.77938C9.28779 5.73444 8.51354 6.50869 7.55849 6.50869Z" fill="#2D383F"/>
<path d="M23.6966 2.63977C23.7013 2.55712 23.7013 2.47435 23.6966 2.3917C23.6917 1.14815 22.6797 0.143962 21.4362 0.148733C20.517 0.152311 19.6936 0.714394 19.3539 1.56706C17.8794 1.59795 16.7046 2.81371 16.7269 4.29036C16.7493 5.77237 17.9688 6.95563 19.4508 6.93321H22.7902C24.0335 6.90995 25.0226 5.88322 24.9994 4.63985C24.9833 3.7789 24.4776 3.0025 23.6966 2.63977ZM24.0559 4.94737C23.9296 5.53987 23.4102 5.96611 22.8045 5.97434H19.4651C18.5101 5.97434 17.7358 5.20009 17.7358 4.24504C17.7358 3.28998 18.5101 2.51573 19.4651 2.51573C19.5366 2.51102 19.6083 2.51102 19.6798 2.51573C19.9212 2.54078 20.1429 2.38067 20.195 2.14363C20.3146 1.43706 20.9843 0.961207 21.6909 1.08077C22.3975 1.20033 22.8734 1.87005 22.7538 2.57667C22.7416 2.64841 22.7235 2.71901 22.6995 2.78771C22.6153 3.03733 22.7494 3.30799 22.9991 3.39225C23.0181 3.39869 23.0376 3.40394 23.0573 3.40787C23.7582 3.55719 24.2053 4.24647 24.0559 4.94737Z" fill="#2D383F"/>
</g>
<defs>
<clipPath id="clip0">
<rect width="25" height="25" fill="white"/>
</clipPath>
</defs>
</svg>

<svg width="25" height="25" fill="none" xmlns="http://www.w3.org/2000/svg"><g clip-path="url(#clip0)" fill="#2D383F"><path d="M23.415 24.188l-4.04-9.398-3.817-8.882a.477.477 0 00-.877 0l-3.407 7.904-1.335 3.106-2.93-6.76a.477.477 0 00-.877 0l-2.753 6.36-3.34 7.665a.477.477 0 00.44.668h22.498a.477.477 0 00.438-.663zm-8.3-16.892l3.096 7.199h-1.088l-1.965-2.171a.477.477 0 00-.754.062l-.735 1.135h-1.23l2.676-6.225zM6.57 11.532l2.447 5.658H7.682a.477.477 0 00-.4.22l-.478.758-1.23-1.737a.477.477 0 00-.391-.205h-.635l2.023-4.694zM1.228 23.897l2.905-6.717h.801l1.489 2.123a.477.477 0 00.391.205.477.477 0 00.391-.22l.735-1.134h1.488l2.486 5.724-10.686.02zm11.73 0l-2.5-5.772 1.57-3.65h1.908a.477.477 0 00.401-.219l.53-.816 1.688 1.866c.09.1.219.157.353.157h1.708l3.63 8.448-9.288-.014zM7.611 2.082a2.252 2.252 0 00-4.35.806 2.18 2.18 0 000 .248 2.252 2.252 0 00.906 4.293l.024.02H7.53a2.684 2.684 0 10.081-5.367zm-.053 4.427H4.22a1.3 1.3 0 11-.267-2.586.477.477 0 00.358-.62 1.298 1.298 0 112.505-.644c.043.25.276.423.529.391.071-.005.143-.005.214 0a1.73 1.73 0 010 3.459zM23.697 2.64a2.184 2.184 0 000-.248 2.252 2.252 0 00-4.343-.825 2.684 2.684 0 00.097 5.366h3.34a2.252 2.252 0 00.906-4.293zm.359 2.307a1.298 1.298 0 01-1.252 1.027h-3.339a1.73 1.73 0 010-3.458c.072-.005.143-.005.215 0a.477.477 0 00.515-.372 1.298 1.298 0 112.505.644.477.477 0 00.357.62c.701.15 1.148.838.999 1.54z"/></g><defs><clipPath id="clip0"><path fill="#fff" d="M0 0h25v25H0z"/></clipPath></defs></svg>
